!!!!SEGMENT: pl-cz--ii-36--006_zeidler-jozef--missa-e-agnus.krn
!!!cenid: 18xx:294
!!!COM: Zeidler, Józef
!!!COM-rismID:
!!!CDT: ~1744-1806
!!!CNT: Polish
!!!OPR: Missa E
!!!OTL: Agnus
!!!OMV: 006
!!!PDT: 1820
!!!AGN: Sacred; Mass
!!!SMS-siglum: PL-CZ
!!!SMS-shelfmark: II-36
!!!SMS-shelfwork: 001-006 M
!!!NIFC-rismSourceID:
!!!NIFC-islandoraID: pl-cz:33714
!!!URL-pdf-islandora: https://repozytorium.nifc.pl/islandora/object/pl-cz%3A33714/datastream/PDF/view
!!!URL-scan:
!!!ONB-nifc: UWAGA: części Mszy: Kyrie, Gloria, Patrem, Sanctus, Benedictus, Agnus. Dona nobis
!!!AIN: 1 alto 1 bass 1 clars 2 empty 1 organ 1 tenor 2 violn 1 vox
!!!key:
**kern	**fba	**dynam	**kern	**dynam	**kern	**dynam	**kern	**text	**dynam	**kern	**text	**kern	**text	**dynam	**kern	**text	**dynam	**kern	**kern	**kern	**dynam
*part10	*	*part10	*part9	*part9	*part8	*part8	*part7	*part7	*part7	*part6	*part6	*part5	*part5	*part5	*part4	*part4	*part4	*part3	*part2	*part1	*part1
*staff10	*	*	*staff9	*	*staff8	*	*staff7	*staff7	*	*staff6	*staff6	*staff5	*staff5	*	*staff4	*staff4	*	*staff3	*staff2	*staff1	*
*Iorgan	*	*	*Ivioln	*	*Ivioln	*	*Ibass	*	*	*Itenor	*	*Ialto	*	*	*Ivox	*	*	*Iempty	*Iempty	*Iclars	*
*I"Organo	*	*	*I"Violino Secundo	*	*I"Violino Primo	*	*I"Basso.	*	*	*I"Tenore	*	*I"Alto	*	*	*I"Canto	*	*	*I"Cornu Secundo in Dis	*I"Cornu Primo in Dis	*I"Clarinetto Primo Solo in B.	*
*I'Org.	*	*	*I'V-no II	*	*I'V-no I	*	*I'B.	*	*	*I'T.	*	*I'A.	*	*	*I'C.	*	*	*I'C. II in D	*I'C. I in D	*I'Cl. in B♭	*
*clefF4	*	*	*clefG2	*	*clefG2	*	*clefF4	*	*	*clefC4	*	*clefC3	*	*	*clefC1	*	*	*clefG2	*clefG2	*clefG2	*
*	*	*	*	*	*	*	*	*	*	*	*	*	*	*	*	*	*	*ITrd5c8	*ITrd5c8	*ITrd1c1	*
*k[f#c#g#d#]	*	*	*k[f#c#g#d#]	*	*k[f#c#g#d#]	*	*k[f#c#g#d#]	*	*	*k[f#c#g#d#]	*	*k[f#c#g#d#]	*	*	*k[f#c#g#d#]	*	*	*k[f#c#g#d#]	*k[f#c#g#d#]	*k[f#c#g#d#]	*
*E:	*	*	*E:	*	*E:	*	*E:	*	*	*E:	*	*E:	*	*	*E:	*	*	*E:	*E:	*E:	*
*M4/4	*	*	*M4/4	*	*M4/4	*	*M4/4	*	*	*M4/4	*	*M4/4	*	*	*M4/4	*	*	*M4/4	*M4/4	*M4/4	*
*met(c)	*	*	*met(c)	*	*met(c)	*	*met(c)	*	*	*met(c)	*	*met(c)	*	*	*met(c)	*	*	*met(c)	*met(c)	*met(c)	*
*	*	*below	*	*	*	*	*	*	*	*	*	*	*	*	*	*	*below	*	*	*	*
=1	=1	=1	=1	=1	=1	=1	=1	=1	=1	=1	=1	=1	=1	=1	=1	=1	=1	=1	=1	=1	=1
*4\right	*	*	*	*	*2\right	*	*4\right	*	*	*4\right	*	*4\right	*	*	*4\right	*	*	*	*	*2\right	*
*	*	*	*	*	*tremolo	*	*	*	*	*	*	*	*	*	*	*	*	*	*	*	*
!LO:TX:a:t=Adagio	!	!	!LO:TX:a:t=Adagio	!	!LO:TX:a:t=Andagio	!	!LO:TX:a:t=Adante	!	!	!LO:TX:a:t=Adagio	!	!LO:TX:a:t=Adagio	!	!	!	!	!	!LO:TX:a:t=Tacet	!LO:TX:a:t=Tacet	!	!
!	!	!LO:DY:rj	!	!	!	!	!	!	!LO:DY:a	!	!	!	!	!	!	!	!	!	!	!	!
4E\	.	f	8g#/L	.	8ee\L	f	4E\	a-	f	4B\	A-	4g#\	A-	f	4ee\	A-	f	1ryy	1ryy	2ee\	f
.	.	.	8g#/	f	8ee\	.	.	.	.	.	.	.	.	.	.	.	.	.	.	.	.
4E\	.	.	8g#/	.	8ee\	.	4E\	-gnus	.	4B\	-gnus	4g#\	-gnus	.	4ee\	-gnus	.	.	.	.	.
.	.	.	8g#/J	.	8ee\J	.	.	.	.	.	.	.	.	.	.	.	.	.	.	.	.
*2\right	*	*	*tremolo	*	*	*	*	*	*	*	*	*	*	*	*	*	*	*	*	*	*
2c#\	3	.	8g#/L	.	8ee\L	.	4c#\	De-	.	4c#\	De-	4g#\	De-	.	4ee\	De-	.	.	.	2ee\	.
.	.	.	8g#/	.	8ee\	.	.	.	.	.	.	.	.	.	.	.	.	.	.	.	.
*	*	*	*	*	*	*	*8\right	*	*	*8\right	*	*8\right	*	*	*8\right	*	*	*	*	*	*
.	.	.	8g#/	.	8ee\	.	8c#\	-i	.	8c#\	-i	8g#\	-i	.	8ee\	-i	.	.	.	.	.
.	.	.	8g#/J	.	8ee\J	.	8c#\	qui	.	8c#\	qui	8g#\	qui	.	8ee\	qui	.	.	.	.	.
=2	=2	=2	=2	=2	=2	=2	=2	=2	=2	=2	=2	=2	=2	=2	=2	=2	=2	=2	=2	=2	=2
!	!	!	!LO:SIC:s:=:v:8f#	!	!	!	!	!	!	!	!	!	!	!	!	!	!	!	!	!	!
!	!	!	!LO:TX:b:t=fis	!	!	!	!	!	!	!	!	!	!	!	!	!	!	!	!	!	!
*	*	*	*	*	*	*	*	*	*	*	*	*	*	*	*	*	*	*	*	*4\right	*
2A#X\	6 5	.	8f#/L 8g#/	.	8ee\L	.	4A#X\	tol-	.	4c#\	tol-	4f#\	tol-	.	4ee\	tol-	.	1ryy	1ryy	4ee\	.
.	.	.	8f#/ 8g#/	.	8ee\	.	.	.	.	.	.	.	.	.	.	.	.	.	.	.	.
.	.	.	8f#/ 8g#/	.	8ee\	.	8A#\	-lis	.	8c#\	-lis	8f#\	-lis	.	8ee\	-lis	.	.	.	4ee\	.
.	.	.	8f#/J 8g#/	.	8ee\J	.	8A#\	pec-	.	8c#\	pec-	8f#\	pec-	.	8ee\	pec-	.	.	.	.	.
*	*	*	*	*	*8\right	*	*	*	*	*	*	*	*	*	*	*	*	*	*	*8\right	*
2B\	4	.	8f#/L	.	8ee\L	.	4B\	-ca-	.	8c#\L	-ca-	4f#\	-ca-	.	8ee\L	-ca-	.	.	.	8ee\L	.
.	3	.	8f#/	.	8dd#\J	.	.	.	.	8B\J	.	.	.	.	8dd#\J	.	.	.	.	8ff#\J	.
.	.	.	8f#/	.	4dd#\	.	8B\	-ta	.	8B\	-ta	8f#\	-ta	.	8dd#\	-ta	.	.	.	4ff#\	.
.	.	.	8f#/J	.	.	.	8B\	pec-	.	8B\	pec-	8f#\	qui	.	8dd#\	qui	.	.	.	.	.
=3	=3	=3	=3	=3	=3	=3	=3	=3	=3	=3	=3	=3	=3	=3	=3	=3	=3	=3	=3	=3	=3
2An\	4 2	.	8f#/L	.	8dd#\L	.	4An\	-ca-	.	4B\	-ca-	4f#\	tol-	.	4dd#\	tol-	.	1ryy	1ryy	4ff#\	.
.	.	.	8f#/	.	8dd#\	.	.	.	.	.	.	.	.	.	.	.	.	.	.	.	.
.	.	.	8f#/	.	8dd#\	.	8A\	-ta	.	8B\	-ta	8f#\	-lis	.	8dd#\	-lis	.	.	.	4ff#\	.
.	.	.	8f#/J	.	8dd#\J	.	8A\	pec-	.	8B\	pec-	8f#\	pec-	.	8dd#\	pec-	.	.	.	.	.
!	!	!	!LO:SIC:s=:v:8g#	!	!	!	!	!	!	!	!	!	!	!	!	!	!	!	!	!	!
2G#\	6	.	8a/L	.	8ee\L	.	4G#\	-ca-	.	4B\	-ca-	4g#\	-ca-	.	4ee\	-ca-	.	.	.	4bb\	.
.	.	.	8a/	.	8ee\	.	.	.	.	.	.	.	.	.	.	.	.	.	.	.	.
.	.	.	8a/	.	8ee\	.	4G#\	-ta	.	4B\	-ta	4g#\	-ta	.	4ee\	-ta	.	.	.	4bb\	.
.	.	.	8a/J	.	8ee\J	.	.	.	.	.	.	.	.	.	.	.	.	.	.	.	.
*	*	*	*	*	*Xtremolo	*	*	*	*	*	*	*	*	*	*	*	*	*	*	*	*
=4	=4	=4	=4	=4	=4	=4	=4	=4	=4	=4	=4	=4	=4	=4	=4	=4	=4	=4	=4	=4	=4
*	*	*	*	*	*	*	*2\right	*	*	*	*	*2\right	*	*	*	*	*	*	*	*	*
2F#\	7	.	8a/L	.	8ee\L	.	2F#\	Mun-	.	(4c#\	mun-	2a\	Mun-	.	(4ee\	mun-	.	1ryy	1ryy	4gg#\	.
.	6	.	8a/	.	8ee\	.	.	.	.	.	.	.	.	.	.	.	.	.	.	.	.
.	.	.	8a/	.	8dd#\	.	.	.	.	4B\)	.	.	.	.	4dd#\)	.	.	.	.	4gg#\	.
.	.	.	8a/J	.	8dd#\J	.	.	.	.	.	.	.	.	.	.	.	.	.	.	.	.
*	*	*	*Xtremolo	*	*	*	*	*	*	*	*	*	*	*	*	*	*	*	*	*	*
!	!	!	!	!	!	!	!LO:PB:g=original	!	!	!LO:PB:g=original	!	!	!	!	!	!	!	!	!	!	!
4E\	.	.	4g#/	.	4ee\	.	4E\	-di	.	4B\	-di	4g#\	-di	.	4ee\	-di	.	.	.	4ee\	.
4E\	.	.	8b/L	.	8gg#\L	.	8F#\	Mi-	.	8B\	Mi-	8g#\	mi-	.	8ee\	mi-	.	.	.	8gg#\L	.
.	.	.	8g#/J	.	8gg#\J	.	8E\	-se-	.	8B\	-se-	8g#\	-se-	f	8ee\	-se-	.	.	.	8gg#\J	.
=5	=5	=5	=5	=5	=5	=5	=5	=5	=5	=5	=5	=5	=5	=5	=5	=5	=5	=5	=5	=5	=5
!	!	!	!LO:PB:g=original	!	!	!	!	!	!	!	!	!LO:PB:g=original	!	!	!	!	!	!	!	!	!
*	*	*	*	*	*tremolo	*	*	*	*	*	*	*	*	*	*	*	*	*	*	*	*
4E\	4+ 2	.	8a#X/L	.	8ff#\L	.	4E\	-re-	.	4A#X\	-re-	4f#\	-re-	.	4dd#\	-re-	.	1ryy	1ryy	4aa#\	.
.	.	.	8a#/	.	8ff#\	.	.	.	.	.	.	.	.	.	.	.	.	.	.	.	.
4D#\	6	.	8b/	.	8ff#\	.	4D#\	-re	.	4B\	-re	4f#\	-re	.	4dd#\	-re	.	.	.	4bb\	.
.	.	.	8b/J	.	8ff#\J	.	.	.	.	.	.	.	.	.	.	.	.	.	.	.	.
*	*	*	*	*	*	*	*	*	*	*	*	*	*	*	*2\right	*	*	*	*	*	*
2C#/	7	.	8b/L	.	8ee\L	.	2C#/	no-	.	(4B\	no-	(4g#\	no-	.	2ee\	no-	.	.	.	4bb\	.
.	.	.	8b/	.	8ee\	.	.	.	.	.	.	.	.	.	.	.	.	.	.	.	.
!	!	!	!	!	!	!	!	!	!	!	!	!	!	!	!	!	!	!	!	!LO:SIC:s=:v:4bbn	!
.	.	.	8a#/	.	8ee\	.	.	.	.	4A#\)	.	4f#\)	.	.	.	.	.	.	.	4bb\	.
.	.	.	8a#/J	.	8ee\J	.	.	.	.	.	.	.	.	.	.	.	.	.	.	.	.
*	*	*	*	*	*Xtremolo	*	*	*	*	*	*	*	*	*	*	*	*	*	*	*	*
=6	=6	=6	=6	=6	=6	=6	=6	=6	=6	=6	=6	=6	=6	=6	=6	=6	=6	=6	=6	=6	=6
4BB/	.	.	4b\	.	4dd#\	.	4BB/	-bis	.	4B\	-bis	4f#\	-bis	.	4dd#\	-bis	.	1ryy	1ryy	4bb\	.
*	*	*	*	*	*	*	*	*	*	*2\right	*	*	*	*	*	*	*	*	*	*	*
4D#/	10 5	.	4f#/	.	2ff#\	.	(4D#\	mi-	.	2B\	Mi-	(4f#\	Mi-	.	2ff#\	mi-	.	.	.	4r	.
.	9	.	.	.	.	.	.	.	.	.	.	.	.	.	.	.	.	.	.	.	.
!	!	!	!	!	!	!	!	!	!	!	!	!	!	!	!	!	!	!	!	!LO:TX:a:t=Oſan ut Pleni	!
2E\	8 3	.	2g#/	.	.	.	4E\)	.	.	.	.	4g#\)	.	.	.	.	.	.	.	2r	.
.	.	.	.	.	4ee\	.	4E\	-se-	.	8B\L	-se-	4g#\	-se-	.	4ee\	-se-	.	.	.	.	.
.	.	.	.	.	.	.	.	.	.	8c#\J	.	.	.	.	.	.	.	.	.	.	.
=7	=7	=7	=7	=7	=7	=7	=7	=7	=7	=7	=7	=7	=7	=7	=7	=7	=7	=7	=7	=7	=7
!	!	!	!	!	!	!	!	!	!	!	!	!	!	!	!LO:PB:g=original	!	!	!	!	!LO:TX:a:t=4	!
1F#\	7 #	.	4a#X/	.	4ee\	.	4F#\	-re-	.	4A#X\	-re-	4f#\	-re-	.	4ee\	-re-	.	1ryy	1ryy	00r	.
.	6 4	.	2b/	.	4dd#\	.	4F#\	-re	.	4B\	-re	4f#\	-re	.	4dd#\	-re	.	.	.	.	.
.	5 4#	.	.	.	2cc#\	.	2F#\	no-	.	(4B\	no-	2f#\	no-	.	2cc#\	no-	.	.	.	.	.
.	.	.	4a#/	.	.	.	.	.	.	4A#\)	.	.	.	.	.	.	.	.	.	.	.
!	!	!	!	!	!	!	!	!	!	!	!	!LO:TX:a:t=Solo	!	!	!	!	!	!	!	!	!
=8	=8	=8	=8	=8	=8	=8	=8	=8	=8	=8	=8	=8	=8	=8	=8	=8	=8	=8	=8	=8	=8
!LO:PB:g=original	!	!	!	!	!	!	!	!	!	!	!	!	!	!	!	!	!	!	!	!	!
!LO:TX:b:t=Solo	!	!	!	!	!	!	!	!	!	!LO:TX:a:t=Solo	!	!	!	!	!	!	!	!	!	!	!
4BB/	.	.	4b\	.	4b\	.	4BB/	-bis	.	4B\	-bis	4f#\	-bis	.	4dd#\	-bis	.	1ryy	1ryy	.	.
8BB/L	.	p:	4r	.	4r	.	4r	.	.	8d#\	A-	8f#\	A-	.	4r	.	.	.	.	.	.
*	*	*	*	*	*	*	*	*	*	*16\right	*	*16\right	*	*	*	*	*	*	*	*	*
8BB/	.	.	.	.	.	.	.	.	.	16e\LL	-gnus	16g#\LL	-gnus	.	.	.	.	.	.	.	.
.	.	.	.	.	.	.	.	.	.	16d#\JJ	.	16f#\JJ	.	.	.	.	.	.	.	.	.
8BB/	.	.	2r	.	2r	.	2r	.	.	8.d#\L	De-	(8.f#\L	Dei	.	2r	.	.	.	.	.	.
8BB/J	.	.	.	.	.	.	.	.	.	.	.	.	.	.	.	.	.	.	.	.	.
.	.	.	.	.	.	.	.	.	.	16c#\Jk	.	16e\Jk	.	.	.	.	.	.	.	.	.
4BB/	.	.	.	.	.	.	.	.	.	8B\	-i	8d#\)	.	.	.	.	.	.	.	.	.
.	.	.	.	.	.	.	.	.	.	8d#\	qui	8f#\	qui	.	.	.	.	.	.	.	.
=9	=9	=9	=9	=9	=9	=9	=9	=9	=9	=9	=9	=9	=9	=9	=9	=9	=9	=9	=9	=9	=9
*tremolo	*	*	*	*	*	*	*	*	*	*	*	*	*	*	*	*	*	*	*	*	*
!	!	!	!LO:TX:a:t=2	!	!LO:TX:a:t=2	!	!LO:TX:a:t=2	!	!	!	!	!	!	!	!LO:TX:a:t=2	!	!	!	!	!	!
8B\L	6 4	.	0rg	.	0r	.	0r	.	.	8e\	tol-	8g#\	tol-	.	0r	.	.	1ryy	1ryy	.	.
8B\	.	.	.	.	.	.	.	.	.	16e\	-lis	16g#\	-lis	.	.	.	.	.	.	.	.
.	.	.	.	.	.	.	.	.	.	16e\	pec-	16g#\	pec-	.	.	.	.	.	.	.	.
8B\	.	.	.	.	.	.	.	.	.	8e\	-ca-	8g#\	-ca-	.	.	.	.	.	.	.	.
!	!	!	!	!	!	!	!	!	!	!LO:PB:g=original	!	!	!	!	!	!	!	!	!	!	!
8B\J	.	.	.	.	.	.	.	.	.	8e\	-ta	8g#\	-ta	.	.	.	.	.	.	.	.
4B\	.	.	.	.	.	.	.	.	.	8e\	mun-	8g#\	Mun-	.	.	.	.	.	.	.	.
.	.	.	.	.	.	.	.	.	.	8d#\	-di	8f#\	-di	.	.	.	.	.	.	.	.
4A\	6 4	.	.	.	.	.	.	.	.	8d#\	Mi-	8f#\	mi-	.	.	.	.	.	.	.	.
.	.	.	.	.	.	.	.	.	.	16d#\LL	-se-	16f#\LL	-se-	.	.	.	.	.	.	.	.
.	.	.	.	.	.	.	.	.	.	16c#\JJ	.	16e\JJ	.	.	.	.	.	.	.	.	.
=10	=10	=10	=10	=10	=10	=10	=10	=10	=10	=10	=10	=10	=10	=10	=10	=10	=10	=10	=10	=10	=10
!	!	!	!	!	!	!	!	!	!	!	!	!LO:PB:g=original	!	!	!	!	!	!	!	!	!
.	7 #	.	.	.	.	.	.	.	.	.	.	.	.	.	.	.	.	.	.	.	.
8G#\L	6 4	.	.	.	.	.	.	.	.	4B#X\	-re-	4d#X\	-re-	.	.	.	.	1ryy	1ryy	.	.
8G#\	.	.	.	.	.	.	.	.	.	.	.	.	.	.	.	.	.	.	.	.	.
8G#\	.	.	.	.	.	.	.	.	.	4c#\	-re	4e\	-re	.	.	.	.	.	.	.	.
8G#\J	.	.	.	.	.	.	.	.	.	.	.	.	.	.	.	.	.	.	.	.	.
8GG#/L	4#	.	.	.	.	.	.	.	.	(4c#\	no-	2d#\	no-	.	.	.	.	.	.	.	.
8GG#/	.	.	.	.	.	.	.	.	.	.	.	.	.	.	.	.	.	.	.	.	.
8GG#/	.	.	.	.	.	.	.	.	.	4B#\)	.	.	.	.	.	.	.	.	.	.	.
8GG#/J	.	.	.	.	.	.	.	.	.	.	.	.	.	.	.	.	.	.	.	.	.
=11	=11	=11	=11	=11	=11	=11	=11	=11	=11	=11	=11	=11	=11	=11	=11	=11	=11	=11	=11	=11	=11
!	!	!	!	!	!LO:PB:g=original	!	!	!	!	!	!	!	!	!	!	!	!	!	!	!LO:PB:g=original	!
!	!	!	!	!	!LO:TX:b:t=Dona nobis Ut Kyrie	!	!	!	!	!	!	!	!	!	!	!	!	!	!	!	!
!	!	!	!	!	!LO:SIC:s=:v:wykreślone 4 takty (tożsame dla tt. 11-14)	!	!	!	!	!	!	!	!	!	!	!	!	!	!	!	!
4C#/	.	f	4r	.	4r	.	4r	.	.	4c#\	-bis	4c#\	-bis	.	4r	.	.	1ryy	1ryy	8r	.
.	.	.	.	.	.	.	.	.	.	.	.	.	.	.	.	.	.	.	.	8gg#\	f
4c#\	.	.	8g#/L	f	8ee\L	f	8c#\	A-	.	8c#\	A-	8g#\	A-	f	8ee\	A-	.	.	.	4gg#\	.
.	.	.	8g#/J	.	8ee\J	.	8c#\	-gnus	f	8c#\	-gnus	8g#\	-gnus	.	8ee\	-gnus	.	.	.	.	.
*	*	*	*	*	*tremolo	*	*	*	*	*	*	*	*	*	*	*	*	*	*	*	*
2B\	4+ 2	.	8g#/L	.	8ee#X\L	.	4B\	De-	.	4c#\	De-	4g#\	De-	.	4ee#X\	De-	f	.	.	4gg#\	.
.	.	.	8g#/	.	8ee#\	.	.	.	.	.	.	.	.	.	.	.	.	.	.	.	.
.	.	.	8g#/	.	8ee#\	.	8B\	-i	.	8c#\	-i	8g#\	-i	.	8ee#\	-i	.	.	.	4gg#\	.
.	.	.	8g#/J	.	8ee#\J	.	8B\	qui	.	8c#\	qui	8g#\	qui	.	8ee#\	qui	.	.	.	.	.
=12	=12	=12	=12	=12	=12	=12	=12	=12	=12	=12	=12	=12	=12	=12	=12	=12	=12	=12	=12	=12	=12
4A\	6	.	8a/L	.	8ff#\L	.	8A\	tol-	.	8c#\	tol	8a\	tol-	.	8ff#\	tol-	.	1ryy	1ryy	4aa\	.
.	.	.	8a/	.	8ff#\	.	8A\	-lis	.	8c#\	lis	8a\	-lis	.	8ff#\	-lis	.	.	.	.	.
8r	.	.	8cc#/	.	8ff#\	.	8r	.	.	8r	.	8r	.	.	8r	.	.	.	.	4ff#\	.
*8\right	*	*	*	*	*	*	*	*	*	*	*	*	*	*	*	*	*	*	*	*	*
8A\	.	.	8cc#/J	.	8ff#\J	.	8A\	qui	.	8c#\	qui	8a\	qui	.	8ff#\	qui	.	.	.	.	.
2A\	4 2	.	8f#/L	.	8dd#\L	.	8A\	tol-	.	8B\	tol-	8f#\	tol-	.	8dd#\	tol-	.	.	.	2dd#\	.
!	!	!	!	!	!	!	!LO:PB:g=original	!	!	!	!	!	!	!	!	!	!	!	!	!	!
.	.	.	8f#/	.	8dd#\	.	16A\	-lis	.	16B\	-lis	16f#\	-lis	.	16dd#\	-lis	.	.	.	.	.
.	.	.	.	.	.	.	16A\	pec-	.	16B\	pec-	16f#\	pec-	.	16dd#\	pec-	.	.	.	.	.
.	.	.	8f#/	.	8dd#\	.	8A\	-ca-	.	8B\	-ca-	8f#\	-ca-	.	8dd#\	-ca-	.	.	.	.	.
.	.	.	8f#/J	.	8dd#\J	.	8A\	-ta	.	8B\	-ta	8f#\	-ta	.	8dd#\	-ta	.	.	.	.	.
*	*	*	*	*	*Xtremolo	*	*	*	*	*	*	*	*	*	*	*	*	*	*	*	*
=13	=13	=13	=13	=13	=13	=13	=13	=13	=13	=13	=13	=13	=13	=13	=13	=13	=13	=13	=13	=13	=13
!	!	!	!	!	!	!	!	!	!	!LO:PB:g=original	!	!	!	!	!	!	!	!	!	!	!
4G#\	6	.	8g#/L	.	8ee\L	.	8G#\	Mun-	.	8B\	mun-	8g#\	mun-	.	8ee\	mun-	.	1ryy	1ryy	4ee\	.
.	.	.	8g#/J	.	8ee\J	.	8G#\	-di	.	8B\	-di	8g#\	-di	.	8ee\	-di	.	.	.	.	.
8r	.	.	8r	.	8r	.	8r	.	.	8r	.	8r	.	.	8r	.	.	.	.	8r	.
*	*	*	*8\right	*	*	*	*	*	*	*	*	*	*	*	*	*	*	*	*	*	*
8D#\	6	.	8b\	p	8ff#\	.	8D#\	pe-	.	8B\	pec-	8f#\	pec-	.	8b\	pec-	.	.	.	8ff#\	p
*	*	*	*4\right	*	*	*	*	*	*	*	*	*	*	*	*	*	*	*	*	*	*
4E\	.	p	4b\	.	8gg#\L	p	4E\	-ca-	p	4B\	-ca-	4g#\	-ta-	.	4b\	-ca-	p	.	.	4gg#\	.
.	.	.	.	.	8bb\	.	.	.	.	.	.	.	.	.	.	.	.	.	.	.	.
4D#\	6	.	4b\	.	8ff#\	.	4D#\	-ta	.	4f#\	-ta	4f#\	-ta	p	4b\	-ta	.	.	.	4ff#\	.
.	.	.	.	.	8bb\J	.	.	.	.	.	.	.	.	.	.	.	.	.	.	.	.
=14	=14	=14	=14	=14	=14	=14	=14	=14	=14	=14	=14	=14	=14	=14	=14	=14	=14	=14	=14	=14	=14
2C#/	7	.	4b\	.	2ee\	.	2C#/	Mun-	.	2e\	mun-	(4g#\	Mun-	.	(4b\	mun-	.	1ryy	1ryy	8ee\L	.
.	6\	.	.	.	.	.	.	.	.	.	.	.	.	.	.	.	.	.	.	8gg#\	.
.	.	.	4a#X\	.	.	.	.	.	.	.	.	4f#\)	.	.	4a#X\)	.	.	.	.	8ff#\	.
.	.	.	.	.	.	.	.	.	.	.	.	.	.	.	.	.	.	.	.	8ee\J	.
*	*	*	*2\right	*	*	*	*	*	*	*	*	*	*	*	*	*	*	*	*	*	*
2BB/	.	.	2b\	.	2dd#\	.	2BB/	-di	.	2d#\	-di	2f#\	-di	.	2b\	-di	.	.	.	2dd#\	.
!LO:TX:b:t=Dona nobis\nut Kyrie	!	!	!LO:TX:b:t=Dona Nobis ut Kyrie ab Initio	!	!LO:TX:b:t=Dona nobis Ut Kyrie	!	!LO:TX:b:t=Dona Nobis\nut Kyrie allegro	!	!	!LO:TX:b:t=Dona Nobis ut Kyrie	!	!LO:TX:b:t=Dona Nobis ut Kyrie	!	!	!LO:TX:b:t=Donanobis ut Kyrie	!	!	!	!	!LO:TX:b:t=Dona nobis ut Kyrie	!
==	==	==	==	==	==	==	==	==	==	==	==	==	==	==	==	==	==	==	==	==	==
*-	*-	*-	*-	*-	*-	*-	*-	*-	*-	*-	*-	*-	*-	*-	*-	*-	*-	*-	*-	*-	*-
!!!system-decoration: s1,s2,s3,s4,s5,s6,s7,s8,s9,s10
!!!RDF**kern: > = above
!!!RDF**kern: < = below
!!!RDF**dynam: f = for
!!!ENC: Krzysztof Stępień
!!!END: 2020-03-18
!!!EED: Leszek Kubiak
!!!EEV: 2020-05-05
